X:1
T:Qui terrena triumphat - Pitoni
T:#
%%score [ 1 2 3 4 ]
L:1/8
Q:1/4=216
M:none
K:C
V:1 treble nm="Soprano" snm="S"
V:2 treble nm="Alto" snm="A"
V:3 treble-8 nm="Tenor" snm="T"
V:4 bass nm="Bass" snm="B"
V:1
"^Qui terrena triumphat""^Giuseppe Ottavio Pitoni\n(1657-1743)" G8 d8 | e8 c8- | c4 B4 A8 | %3
w: Qui ter-|re- na|* tri- um-|
w: |||
w: Qui man-|du- cat|* hunc pa-|
 G8 z4 (c4- | c2 B2 B2 AB c4) A4 | d4 A4 (B4 c4-) |[M:4/2] (c4 B4) c4 (c4- | c2 B2 B2 AG A4) d4 | %8
w: phat re\-|* * * * * * gnat||* * * re\-|* * * * * * gnat|
w: ||in ae- ter\- *|* * num, *||
w: nem vi\-|* * * * * * vet||* * * vi\-|* * * * * * vet|
 B4 G4 (c4 G4) | d8 z4 (c4- | c2 B2 B2 AB c4) G4 | z8 z4 (A4- | A2 G2 F2 E2 D4) E4 | F4 D4 z8 | %14
w: |* re\-|* * * * * * gnat||||
w: in ae- ter\- *|num, *||in|* * * * * ae-|ter- num.|
w: |* vi\-|* * * * * * vet||||
 G8 d8 | e8 c8- | c4 B4 A8 | G8 z4 (c4- | c2 B2 B2 AB c4) A4 | d4 A4 (B4 c4- | c4 B4 c8) | %21
w: Qui ter-|re- na|* tri- um-|phat re\-|* * * * * * gnat|||
w: |||||in ae- ter\- *||
w: Qui man-|du- cat|* hunc pa-|nem vi\-|* * * * * * vet|||
 (d6 cB A4 d4 | B8 c4 G4 | A4 B4 c8- | c4 B4) c8 | z4 G4 E4 D4- | (D2 E2 F4) G8 | z4 (F6 E2 E2 DC | %28
w: |||* * num,|in ae- ter\-||re\- * * * *|
w: |||||* * * num,||
w: ||||||vi\- * * * *|
 D4) G4 z4 D4 | (G6 AB c4 G4) | (A4 G4) A8 | z8 C8 | G8 A8 | F12 E4 | D8 C8 | z4 (G6 ^F2 F2 EF) | %36
w: * gnat *|||Qui|ter- re-|na tri-|um- phat|re\- * * * *|
w: * * in|ae\- * * * *|ter\- * num.||||||
w: * vet *|||Qui|man- du-|cat hunc|pa- nem|vi\- * * * *|
 G4 E4 A4 E4 | (^F4 G8 F4 | G6 AB c6 BA | d6 cd e4 c4) | d8 z8 | (d8 c8) | B8 A8 | G4 (G4 A4 F4 | %44
w: * gnat * *||||||le- lu-|ia, al\- * *|
w: * * in ae-|ter\- * *|||num.|Al\- *|||
w: * vet * *||||||||
 G4 E4 F4 D4 | E2 C2) c8 B4 | c8 z4 (G4 | A4 F4 G4 E4 | F4 D4 E4) C4 | D8 G8 | z4 (d4 e4 c4 | %51
w: |* * le- lu-|ia, al\-||* * * le-|lu- ia,|al\- * *|
w: |||||||
w: |||||||
 d4 B4 c4 A4) | B4 (G8 ^F4) | G4 (d4 e4 c4 | d4 B4 c4 A4) | B4 (G8 ^F4) | G8 =F8 | E8 D8 | C8 z8 | %59
w: |le- lu\- *|ia, al\- * *||le- lu\- *|ia, al-|le- lu-|ia,|
w: ||||||||
w: ||||||||
 (G8 F8) | E8 D8 | C8 z8 | z4 (e8 d4- | d4[Q:1/4=212] c8[Q:1/4=207] B4- | %64
w: al\- *|le lu-|ia,|al\- *||
w: |||||
w: |||||
[Q:1/4=203] B4[Q:1/4=198] A8[Q:1/4=193] G4- |[Q:1/4=190] G4)[Q:1/4=187] E4[Q:1/4=183] A8 | %66
w: |* le- lu-|
w: ||
w: ||
[Q:1/4=180] G16 |] %67
w: ia.|
w: |
w: |
V:2
 z16 | z16 | z16 | z8 C8 | G8 A8 | F12 E4 |[M:4/2] D8 C8 | z4 (G6 ^F2 F2 EF | G4) E4 A4 E4 | %9
w: |||Qui|ter- re-|na tri-|um- phat|re\- * * * *|* gnat * *|
w: ||||||||* * in ae-|
w: |||Qui|man- du-|cat hunc|pa- nem|vi\- * * * *|* vet * *|
 (^F4 G8 F4) | G4 (G6 F2 E2 DC) | D4 G4 E4 C4 | (F4 C4) G8 | z4 (F6 E2 E2 DC | D4) D4 z4 A4 | %15
w: |* re\- * * * *|* gnat * *||||
w: ter\- * *|num, * * * * *|* * in ae-|ter\- * num,|re\- * * * *|* gnat in|
w: |* vi\- * * * *|* vet * *||||
 (G6 F2 E8) | (D8 C4) (D4- | D2 CD E6 D2 E2 C2 | D8 F8- | F8 D4 E4 | F4) D4 z8 | G,8 D8 | E8 C8- | %23
w: |* * ter\-||||* num.|Qui ter-|re- na|
w: ae\- * *||||||||
w: ||||||Qui man-|du- cat|
 C4 B,4 A,8 | G,8 z4 (C4- | C2 B,2 B,2 A,B, C4) A,4 | D4 A,4 (B,4 C4- | C4 B,4) C4 (C4- | %28
w: * tri- um-|phat re\-|* * * * * * gnat||* * * re\-|
w: |||in ae- ter\- *|* * num, *|
w: * hunc pa-|nem vi\-|* * * * * * vet||* * * vi\-|
 C2 B,2 B,2 A,G, A,8) | G,4 (G2 F2 E2 D2 C2 B,2 | A,4) B,4 (C4 D4-) | (D2 CD E6 D2 E2 C2 | %32
w: |gnat * * * * * *|||
w: |* in * * * * *|* ae- ter- *||
w: |vet * * * * * *|||
 D6 E2 F8- | F4 D8 E2 F2 | G8 E6 FE | D8) D8 | z4 B,4 E,4 G,4 | (A,4 B,4 C4 A,4) | %38
w: |||* num,|re- gnat *||
w: ||||* * in|ae\- * * *|
w: ||||vi- vet *||
 (D8 C2 D2 E2 F2 | G8 E4 A4 | F6 E2 D4) G,4 | z4 (D4 E4 C4) | (D4 B,4 C4 A,4 | B,4 E8 D4- | %44
w: ||||||
w: ter\- * * * *||* * * num.|Al\- * *|||
w: ||||||
 D4) C8 B,4 | (C8 D8) | C8 B,8 | A,8 G,4 (G4 | A4 F4 G4 E4) | (F4 D4 E2 C2) G4- | G4 ^F4 G8 | %51
w: * le- lu-|ia, *|al- le-|lu- ia, al\-||* * * * le\-|* lu- ia,|
w: |||||||
w: |||||||
 z4 (D4 E4 C4 | D4 B,4 C4 A,4) | B,8 A,8 | G,4 (D4 E4 C4) | (D4 B,4 C4 A,4) | B,4 G,4 C8 | %57
w: al\- * *||le- lu-|ia, al\- * *||le- lu- ia,|
w: ||||||
w: ||||||
 (G8 F8) | E8 D8 | C8 z8 | (G8 F8) | E8 D8 | C6 (G2 E4 F4 | D4 E4 C4 D4 | B,4 C4 A,4 B,4) | %65
w: al\- *|le- lu-|ia,|al\- *|le- lu-|ia, al\- * *|||
w: ||||||||
w: ||||||||
 G,8 D8 | D16 |] %67
w: le- lu-|ia.|
w: ||
w: ||
V:3
 z16 | z16 | z16 | z16 | z16 | z16 |[M:4/2][K:treble-8] z16 | G8 d8 | e8 c8- | c4 B4 A8 | %10
w: |||||||Qui ter-|re- na|* tri- um-|
w: ||||||||||
w: |||||||Qui man-|du- cat|* hunc pa-|
 G8 z4 c4- | (c2 B2 B2 AB c4) A4 | d4 A4 (B4 c4- | c4 B4) c4 (c4- | c2 B2 B2 AG A4) d4 | %15
w: phat re\-|* * * * * * gnat||* * * re\-|* * * * * * gnat|
w: ||in ae- ter\- *|* * num, *||
w: nem vi\-|* * * * * * vet||* * * vi\-|* * * * * * vet|
 B4 G4 (c4 G4) | (A4 B4 c4) A4 | z8 C8 | G8 A8 | F12 E4 | D8 C8 | z4 (G6 ^F2 F2 EF | G4) E4 A4 E4 | %23
w: ||Qui|ter- re-|na tri-|um- phat|re\- * * * *|* gnat * *|
w: in ae- ter- *|* * * num.||||||* * in ae-|
w: ||Qui|man- du-|cat hunc|pa- nem|vi\- * * * *|* vet * *|
 (^F4 G8 F4) | G4 d4 e8 | (d6 cB A2 G2 F2 E2) | (D4 A4 G8) | F8 z8 | G8 d8 | e8 c8- | c4 B4 A8 | %31
w: |||||Qui ter-|re- na|* tri- um-|
w: ter\- * *|num, in ae-|ter\- * * * * * *||num,||||
w: |||||Qui man-|du- cat|* hunc pa-|
 G8 z4 (c4- | c2 B2 B2 AB c4) A4 | d4 A4 (B4 c4- | c4 B4) c4 (c4- | c2 B2 B2 AG A4) d4 | B4 G4 c8 | %37
w: phat re\-|* * * * * * gnat||* * * re\-|* * * * * * gnat||
w: ||in ae- ter\- *|* * num, *||in ae- ter-|
w: nem vi\-|* * * * * * vet||* * * vi\-|* * * * * * vet||
 d8 z4 (c4- | c2 B2 B2 AG A8) | G8 C4 F4 | (D12 E4 | F4 G4) C8 | z4 (d4 e4 c4 | d4 B4 c4 A4 | %44
w: * re\-||gnat * *|||Al\- * *||
w: num *||* in ae-|ter\- *|* * num.|||
w: * vi\-||vet * *|||||
 B4 G4) A4 F4 | (c6 BA G8) | z16 | z8 (G8 | F8) E8 | D8 C8 | z16 | (d8 c8) | B8 A8 | G8 z8 | %54
w: * * le- lu-|ia, * * *||al\-|* le-|lu- ia,||al\- *|le- lu-|ia,|
w: ||||||||||
w: ||||||||||
 (d8 c8) | B8 A8 | G8 z8 | z4 (G4 A4 F4 | G4 E4 F4 D4) | E8 D8 | C4 (G4 A4 F4) | (G4 E4 F4) D4 | %62
w: al\- *|le- lu-|ia,|al\- * *||le- lu-|ia, al\- * *|* * * le-|
w: ||||||||
w: ||||||||
 E4 C4 (c8 | B8 A8 | G8 F8 | E4) G8 ^F4 | G16 |] %67
w: lu- ia, al\-|||* le- lu-|ia.|
w: |||||
w: |||||
V:4
 z16 | z16 | z16 | z16 | z16 | z16 |[M:4/2] z16 | z16 | z16 | z16 | z8 C,8 | G,8 A,8 | F,12 E,4 | %13
w: ||||||||||Qui|ter- re-|na tri-|
w: |||||||||||||
w: ||||||||||Qui|man- du-|cat hunc|
 D,8 C,8 | z4 (G,6 ^F,2 F,2 E,F, | G,4) E,4 A,4 E,4 | (^F,4 G,8 F,4) | G,4 C,8 A,,4 | %18
w: um- phat|re\- * * * *|* gnat * *|||
w: ||* * in ae-|ter\- * *|num, in ae-|
w: pa- nem|vi\- * * * *|* vet * *|||
 (G,,8 F,,4 F,4 | D,2 E,2 F,2 E,F, G,8 | F,8) E,4 C4- | (C2 B,2 B,2 A,G, A,8) | G,8 z8 | z16 | %24
w: ||* * re\-||gnat.||
w: ter\- * *||* num, *||||
w: ||* * vi\-||vet.||
 z8 C,8 | G,8 A,8 | F,12 E,4 | D,8 C,8 | z4 (G,6 ^F,2 F,2 E,F, | G,4) E,4 A,4 E,4 | %30
w: Qui|ter- re-|na tri-|um- phat|re\- * * * *|* gnat * *|
w: |||||* * in ae-|
w: Qui|man- du-|cat hunc|pa- nem|vi\- * * * *|* vet * *|
 (^F,4 G,8 F,4) | G,4 C,8 A,,4 | (G,,8 F,,4 F,4 | D,8) G,8- | G,8 z8 | G,,8 D,8 | E,8 C,8- | %37
w: |||||Qui ter-|re- na|
w: ter\- * *|num, in ae-|ter\- * *|* num.||||
w: |||||Qui man-|du- cat|
 C,4 B,,4 A,,8 | G,,8 z4 (C4- | C2 B,2 B,2 A,B, C4) A,4 | D4 A,4 (B,4 C4- | C4 B,4) C8 | z16 | %43
w: * tri- um-|phat re\-|* * * * * * gnat||||
w: |||in ae- ter\- *|* * num.||
w: * hunc pa-|nem vi\-|* * * * * * vet||||
 (G,8 F,8) | E,8 D,8 | C,8 z4 (G,4 | A,4 F,4 G,4 E,4 | F,4 D,4) E,8 | D,8 C,4 C4 | C4 B,4 C8 | %50
w: Al\- *|le- lu-|ia, al\-||* * le-|lu- ia, al-|le- lu- ia,|
w: |||||||
w: |||||||
 (D8 C8) | B,8 A,8 | G,8 z8 | (D8 C8) | B,8 A,8 | G,8 z8 | z4 (G,4 A,4 F,4 | G,4 E,4 F,4 D,4 | %58
w: al\- *|le- lu-|ia,|al\- *|le- lu-|ia,|al\- * *||
w: ||||||||
w: ||||||||
 E,2 C,2) C8 B,4 | C4 (G,4 A,4 F,4 | G,4 E,4 F,4 D,4) | (E,2 C,2) C8 B,4 | C4 (G,4 A,4 F,4 | %63
w: * * le- lu-|ia, al\- * *||* * le- lu-|ia, al\- * *|
w: |||||
w: |||||
 G,4 E,4 F,4 D,4 | E,4 C,4 D,4 B,,4 | C,4) E,4 D,8 | G,,16 |] %67
w: ||* le- lu-|ia.|
w: ||||
w: ||||

